X: 73
T:Kays Hornpipe. GHW.073
T:Hp
M:2/4
L:1/8
Q:300
S:George H.Watson,MS,Swanton Abbott,Norfolk,1850-1880
R:Hornpipe
O:England
A:Norfolk
Z:vmp.Taz Tarry
K:D
(FE)|D2D2 D>FE>G|F2F2 F>AG>B|A>dc>B A>GF>E|D>FA>F B>GE>C|!
D2D2 D>FE>G|E2E2 E>GF>A|A>dc>B A>GF>E|D2D2D2:|!
|:A2|F>Ad>A F>Ad>A|G>Bd>B G>Bd>B|A>ce>c A>ce>c|d>fe>d c>BA>G|!
F>Ad>A F>Ad>A|G>Bd>B G>Bd>B|A>ce>c A>ce>c|1 e>dc>B A>GF>E:|2d2[d2F2][d2F
2]||
